X:1
T:Title
%%score { 1 | ( 2 3 ) }
L:1/8
Q:1/4=100
M:4/4
K:G
V:1 treble nm="Grand Piano"
V:2 treble 
V:3 treble 
V:1
 B2 B>B [Bd]cBA | G2 [DB]2 [G,CE]2 [CEA]2 | [B,DG]2 [B,DG]>[B,DG] [B,DG]2 [DFA]2 | [DGB]6 dc | %4
w: Robert~Lowry * * * * * *||||
 B2 B>B [Fd]c[DGB][FA] | [B,G]2 [DB]2 [G,CE]2 [CEA]2 | [B,DG]2 [B,DG]>[B,DG] [DGB]2 [CFA]2 | %7
w: |||
 [B,G]6 cB | [CFA]2 [FA]>[FA] [Fd]2 [DF]2 | [GB]2 [FA]2 [DF]2 [FA]2 | B2 B>B [G^c]2 [Gc]2 | %11
w: ||||
 [Fd]6 z2 | d2 d>d cBAG | [CEA]2 [CEG]2 [G,CE]2 [CEA]2 | [B,DG]2 [B,DG]>[B,DG] [DGB]2 [CA]2 | %15
w: ||||
 [B,DG]8 |] %16
w: |
V:2
 [G,DG]2 [G,DG]>[G,DG] z A[DG][CD] | [G,B,D]2 [G,,G,]2 C,2 A,,2 | D,2 D,>D, D,2 D,2 | %3
 G,6[K:treble] BA | [G,DG]2 [G,DG]>[G,DG] z A[K:bass] z C | E,2 [B,,G,]2 C,2 A,,2 | %6
 D,2 D,>D, D,2 D,2 | G,,6[K:treble] AG | D,2 [D,D]>[D,D] [D,A,]2 [D,A,]2 | %9
 [D,A,]2 [D,A,]2 [D,A,]2 [D,D]2 | [G,DG]2 [G,DG]>[G,DG][K:bass] [E,A,]2 [E,A,]2 | [D,A,]6 z2 | %12
 z4 [G,G]2[K:bass] .C2 | C,2 C,2 C,2 A,,2 | D,2 D,>D, D,2 D,2 | G,,8 |] %16
V:3
 z4 [G,D]2 G,2 | x8 | x8 | x6[K:treble] x2 | z4 [D,D]2[K:bass] D,2 | x8 | x8 | x6[K:treble] x2 | %8
 x8 | x8 | x4[K:bass] x4 | x8 | [G,B,G]2 [G,B,G]>[G,B,G] ED[K:bass][G,D]-[G,B,D] | x8 | x8 | x8 |] %16

